source/img/heart.svg

<svg fill="none" height="12" viewBox="0 0 13 12" width="13" xmlns="http://www.w3.org/2000/svg"><path d="m6.46867 12c-.10977.0014-.21855-.0202-.31879-.0633-.10025-.0432-.18955-.1069-.26173-.1867-3.92889-4.33-4.8515-5.31-5.027734-5.58-.553328-.67503-.85625438-1.50944-.860416-2.37.00441359-.72575.223059-1.43527.63034-2.0455.40728-.61022.98634-1.095902 1.66939-1.400172.68305-.3042704 1.44182-.4145412 2.18748-.317903.74566.096638 1.44735.396186 2.02293.863575.7176-.580509 1.62398-.89909289 2.56052-.9 1.04294.00264761 2.04224.404172 2.77874 1.11652.7365.71236 1.1501 1.67739 1.1501 2.68348.0145.87715-.315 1.7272-.9226 2.38l-5.03807 5.56c-.07103.0785-.15867.1414-.25701.1846-.09834.0431-.20512.0654-.31315.0654zm-4.39538-6.72c.2177.26 2.56052 2.84 4.39538 4.86l4.47833-4.94c.3603-.38202.5535-.8837.539-1.4 0-.61795-.2544-1.2106-.7074-1.64756s-1.06734-.68244-1.70794-.68244c-.38059.00297-.75554.08909-1.09668.2519-.34113.1628-.63959.39806-.87295.6881-.07537.08603-.16893.15553-.27442.20382-.10548.04829-.22046.07427-.3372.07618-.11604-.00153-.23005-.0295-.33274-.08164s-.19115-.12696-.25815-.21836c-.23068-.28896-.52765-.52242-.86759-.68204-.33994-.15963-.71361-.24108-1.09167-.23796-.45421.00534-.89773.1336-1.28007.37016-.38235.23657-.68816.57195-.88261.96794-.19445.396-.26974.83671-.21728 1.27196s.23055.84754.51399 1.18994z" fill="#d22856"/></svg>

<svg width="13" height="12" viewBox="0 0 13 12" fill="none" xmlns="http://www.w3.org/2000/svg">
<path d="M6.46867 12C6.3589 12.0014 6.25012 11.9798 6.14988 11.9367C6.04963 11.8935 5.96033 11.8298 5.88815 11.75C1.95926 7.42 1.03665 6.44 0.860416 6.17C0.307088 5.49497 0.00416162 4.66056 0 3.8C0.00441359 3.07425 0.223059 2.36473 0.63034 1.7545C1.03762 1.14428 1.61668 0.658598 2.29973 0.354328C2.98278 0.0500576 3.74155 -0.0602132 4.48721 0.036425C5.23287 0.133063 5.93456 0.432611 6.51014 0.9C7.22774 0.319491 8.13412 0.00090711 9.07066 0C10.1136 0.00264761 11.1129 0.404172 11.8494 1.11652C12.5859 1.82888 12.9995 2.79391 12.9995 3.8C13.014 4.67715 12.6845 5.5272 12.0769 6.18L7.03883 11.74C6.9678 11.8185 6.88016 11.8814 6.78182 11.9246C6.68348 11.9677 6.5767 11.99 6.46867 11.99V12ZM2.07329 5.28C2.29099 5.54 4.63381 8.12 6.46867 10.14L10.947 5.2C11.3073 4.81798 11.5005 4.3163 11.486 3.8C11.486 3.18205 11.2316 2.5894 10.7786 2.15244C10.3256 1.71548 9.71126 1.47 9.07066 1.47C8.69007 1.47297 8.31512 1.55909 7.97398 1.7219C7.63285 1.8847 7.33439 2.11996 7.10103 2.41C7.02566 2.49603 6.9321 2.56553 6.82661 2.61382C6.72113 2.66211 6.60615 2.68809 6.48941 2.69C6.37337 2.68847 6.25936 2.6605 6.15667 2.60836C6.05398 2.55622 5.96552 2.4814 5.89852 2.39C5.66784 2.10104 5.37087 1.86758 5.03093 1.70796C4.69099 1.54833 4.31732 1.46688 3.93926 1.47C3.48505 1.47534 3.04153 1.6036 2.65919 1.84016C2.27684 2.07673 1.97103 2.41211 1.77658 2.8081C1.58213 3.2041 1.50684 3.64481 1.5593 4.08006C1.61176 4.51531 1.78985 4.9276 2.07329 5.27V5.28Z" fill="#D22856"/>
</svg>
